packages/gestalt-icons-android/vr-theme/ic_vr_music-off_gestalt.svg

<svg width="24" height="24" viewBox="0 0 24 24" fill="none" xmlns="http://www.w3.org/2000/svg">
<path d="M0.292969 1.70718L22.293 23.7072L23.7072 22.293L1.70718 0.292969L0.292969 1.70718Z" fill="black"/>
<path d="M23.0001 15.9999C23.0001 16.7864 22.7731 17.5198 22.3811 18.1383L20.8922 16.6494C20.9621 16.4458 21.0001 16.2273 21.0001 15.9999C21.0001 14.8953 20.1046 13.9999 19.0001 13.9999C18.7727 13.9999 18.5542 14.0378 18.3505 14.1077L16.8617 12.6189C17.4802 12.2269 18.2136 11.9999 19.0001 11.9999C19.7287 11.9999 20.4117 12.1947 21.0001 12.535V8.14625C20.7656 8.25601 20.5159 8.34081 20.254 8.39694L13.9834 9.74063L12.299 8.05618L19.8349 6.44133C20.5145 6.2957 21.0001 5.69511 21.0001 5.00008V4.47388C21.0001 3.83723 20.4131 3.36268 19.7905 3.49608L11.3715 5.30016C10.9053 5.40006 10.4839 5.60516 10.1302 5.88736L8.71056 4.46775C9.33383 3.92283 10.0979 3.52767 10.9524 3.34455L19.3715 1.54047C21.239 1.14028 23.0001 2.56394 23.0001 4.47388V15.9999Z" fill="black"/>
<path fill-rule="evenodd" clip-rule="evenodd" d="M9.00008 13.2425L7.00008 11.2425V15.535C6.41173 15.1947 5.72865 14.9999 5.00008 14.9999C2.79094 14.9999 1.00008 16.7908 1.00008 18.9999C1.00008 21.209 2.79094 22.9999 5.00008 22.9999C7.20921 22.9999 9.00008 21.209 9.00008 18.9999V13.2425ZM5.00008 16.9999C6.10464 16.9999 7.00008 17.8953 7.00008 18.9999C7.00008 20.1045 6.10464 20.9999 5.00008 20.9999C3.89551 20.9999 3.00008 20.1045 3.00008 18.9999C3.00008 17.8953 3.89551 16.9999 5.00008 16.9999Z" fill="black"/>
</svg>

<svg xmlns="http://www.w3.org/2000/svg" width="24" height="24"><path d="m1.7.3 22 22-1.4 1.4-22-22zM23 16q-.02 1.2-.62 2.14l-1.49-1.5a2 2 0 0 0-2.54-2.53l-1.49-1.5a4 4 0 0 1 4.14-.07v-4.4q-.35.17-.75.26l-6.27 1.34-1.68-1.68 7.53-1.62A1.5 1.5 0 0 0 21 5v-.53a1 1 0 0 0-1.21-.97l-8.42 1.8a3 3 0 0 0-1.24.59L8.71 4.47a5 5 0 0 1 2.24-1.13l8.42-1.8A3 3 0 0 1 23 4.47zM9 19a4 4 0 1 1-2-3.46v-4.3l2 2zm-6 0a2 2 0 1 0 4 0 2 2 0 0 0-4 0"/></svg>
